svgs/thin/bridge-circle-check.svg

<svg xmlns="http://www.w3.org/2000/svg" viewBox="0 0 640 512"><!--! Font Awesome Pro 6.6.0 by @fontawesome - https://fontawesome.com License - https://fontawesome.com/license (Commercial License) Copyright 2024 Fonticons, Inc. --><path d="M40 32c-4.4 0-8 3.6-8 8s3.6 8 8 8l80 0 0 96-80 0c-4.4 0-8 3.6-8 8s3.6 8 8 8l560 0c4.4 0 8-3.6 8-8s-3.6-8-8-8l-80 0 0-96 80 0c4.4 0 8-3.6 8-8s-3.6-8-8-8L40 32zM504 48l0 96-112 0 0-96 112 0zM376 48l0 96-112 0 0-96 112 0zM248 48l0 96-112 0 0-96 112 0zM40 256c-4.4 0-8 3.6-8 8s3.6 8 8 8l24 0c39.8 0 72 32.2 72 72l0 96c0 22.1 17.9 40 40 40l32 0c22.1 0 40-17.9 40-40l0-96c0-39.8 32.2-72 72-72c9 0 17.6 1.6 25.5 4.7c2.8-4.7 5.9-9.2 9.1-13.6C344 258.5 332.3 256 320 256c-48.6 0-88 39.4-88 88l0 96c0 13.3-10.7 24-24 24l-32 0c-13.3 0-24-10.7-24-24l0-96c0-48.6-39.4-88-88-88l-24 0zm456-16a128 128 0 1 1 0 256 128 128 0 1 1 0-256zm0 272a144 144 0 1 0 0-288 144 144 0 1 0 0 288zm69.7-189.7c-3.1-3.1-8.2-3.1-11.3 0L480 396.7l-42.3-42.3c-3.1-3.1-8.2-3.1-11.3 0s-3.1 8.2 0 11.3l48 48c3.1 3.1 8.2 3.1 11.3 0l80-80c3.1-3.1 3.1-8.2 0-11.3z"/></svg>

<svg xmlns="http://www.w3.org/2000/svg" viewBox="0 0 640 512"><!--! Font Awesome Pro 6.4.2 by @fontawesome - https://fontawesome.com License - https://fontawesome.com/license (Commercial License) Copyright 2023 Fonticons, Inc. --><path d="M40 32c-4.4 0-8 3.6-8 8s3.6 8 8 8h80v96H40c-4.4 0-8 3.6-8 8s3.6 8 8 8H600c4.4 0 8-3.6 8-8s-3.6-8-8-8H520V48h80c4.4 0 8-3.6 8-8s-3.6-8-8-8H40zM504 48v96H392V48H504zM376 48v96H264V48H376zM248 48v96H136V48H248zM40 256c-4.4 0-8 3.6-8 8s3.6 8 8 8H64c39.8 0 72 32.2 72 72v96c0 22.1 17.9 40 40 40h32c22.1 0 40-17.9 40-40V344c0-39.8 32.2-72 72-72c9 0 17.6 1.6 25.5 4.7c2.8-4.7 5.9-9.2 9.1-13.6C344 258.5 332.3 256 320 256c-48.6 0-88 39.4-88 88v96c0 13.3-10.7 24-24 24H176c-13.3 0-24-10.7-24-24V344c0-48.6-39.4-88-88-88H40zm456-16a128 128 0 1 1 0 256 128 128 0 1 1 0-256zm0 272a144 144 0 1 0 0-288 144 144 0 1 0 0 288zm69.7-189.7c-3.1-3.1-8.2-3.1-11.3 0L480 396.7l-42.3-42.3c-3.1-3.1-8.2-3.1-11.3 0s-3.1 8.2 0 11.3l48 48c3.1 3.1 8.2 3.1 11.3 0l80-80c3.1-3.1 3.1-8.2 0-11.3z"/></svg>
